images/essays/new-typography/offline-online.svg

<svg height="37" viewBox="0 0 764 37" width="764" xmlns="http://www.w3.org/2000/svg"><g fill="none" fill-rule="evenodd"><g fill="#fff"><circle cx="33.5" cy="31.5" r="5.5"/><circle cx="736.5" cy="31.5" r="5.5"/><path d="m5.36363636 16.1818182c-1.35758254 0-2.45454127-.3363603-3.29090909-1.0090909-.83636782-.6727307-1.25454545-1.7121142-1.25454545-3.1181818v-2.94545459c0-1.41818891.42120791-2.47272382 1.26363636-3.16363636.84242846-.69091255 1.94241746-1.03636364 3.3-1.03636364 1.35758255 0 2.451511.34545109 3.28181818 1.03636364.83030719.69091254 1.24545455 1.74544745 1.24545455 3.16363636v2.94545459c0 1.4060676-.41817764 2.4454511-1.25454546 3.1181818-.83636781.6727306-1.93332654 1.0090909-3.29090909 1.0090909zm0-1.6363637c.90909546 0 1.59090682-.1939374 2.04545455-.5818181.45454773-.3878808.68181818-1.024238.68181818-1.9090909v-2.94545459c0-.87273164-.22727045-1.51817973-.68181818-1.93636364s-1.13635909-.62727272-2.04545455-.62727272c-.90909545 0-1.59090681.20908881-2.04545454.62727272s-.68181818 1.063632-.68181818 1.93636364v2.94545459c0 .8848529.22727045 1.5212101.68181818 1.9090909.45454773.3878807 1.13635909.5818181 2.04545454.5818181zm9.00000004 1.4545455v-9.27272727h-2.1818182v-1.63636364h2.1818182v-.72727273c0-.98182309.2969667-1.74242154.8909091-2.28181818.5939423-.53939663 1.3333289-.80909091 2.2181818-.80909091.3515169 0 .7818156.04848437 1.2909091.14545455.5090934.09697018.91515.20606 1.2181818.32727273l-.3636364 1.52727272c-.2545467-.09697018-.5363621-.18181782-.8454545-.25454545-.3090925-.07272764-.6212106-.10909091-.9363637-.10909091-.5090934 0-.9121197.11212009-1.2090909.33636364-.2969712.22424354-.4454545.59090654-.4454545 1.1v.74545454h3.6363636v1.63636364h-3.6363636v9.27272727zm9.9090909 0v-9.27272727h-2.1818182v-1.63636364h2.1818182v-.72727273c0-.98182309.2969667-1.74242154.8909091-2.28181818.5939423-.53939663 1.3333289-.80909091 2.2181818-.80909091.3515169 0 .7818156.04848437 1.2909091.14545455.5090934.09697018.91515.20606 1.2181818.32727273l-.3636364 1.52727272c-.2545467-.09697018-.5363621-.18181782-.8454545-.25454545-.3090925-.07272764-.6212106-.10909091-.9363637-.10909091-.5090934 0-.9121197.11212009-1.2090909.33636364-.2969711.22424354-.4454545.59090654-.4454545 1.1v.74545454h3.6363636v1.63636364h-3.6363636v9.27272727zm12.9272727.0909091c-1.2242485 0-2.184845-.4121171-2.8818182-1.2363636-.6969732-.8242466-1.0454545-1.7999944-1.0454545-2.9272728v-10.47272725h1.8181818v10.49090905c0 .6424275.1787861 1.2121188.5363636 1.709091.3575776.4969721.8999964.7454545 1.6272728.7454545.181819 0 .3939381-.0303027.6363636-.0909091.2424254-.0606064.4545445-.1333329.6363636-.2181818l.3636364 1.5818182c-.2303042.1212127-.4909076.2212117-.7818182.3-.2909105.0787882-.5939378.1181818-.9090909.1181818zm5.0727273-.0909091v-10.90909091h1.8181818v10.90909091zm.9090909-12.90909091c-.4606084 0-.8333319-.07272654-1.1181818-.21818182-.2848499-.14545527-.4272728-.41817982-.4272728-.81818182v-.12727272c0-.41212328.1424229-.69393864.4272728-.84545455s.6575734-.22727272 1.1181818-.22727272c.4606083 0 .8333319.07575681 1.1181818.22727272s.4272727.43333127.4272727.84545455v.12727272c0 .400002-.1454531.67272655-.4363636.81818182-.2909106.14545528-.6606038.21818182-1.1090909.21818182zm5.3636363 12.90909091v-10.90909091h1.8181819v1.81818182h.5454545c.266668-.60606364.6878759-1.09090727 1.2636364-1.45454546.5757604-.36363818 1.2212085-.54545454 1.9363636-.54545454 1.0787933 0 1.9363605.33636027 2.5727273 1.00909091.6363668.67273063.9545454 1.57878218.9545454 2.71818182v7.36363636h-1.8181818v-7c0-.800004-.2030283-1.39393745-.6090909-1.78181818s-.9181787-.58181818-1.5363636-.58181818c-.7030338 0-1.3090884.17878609-1.8181818.53636363-.5090935.35757755-1.0060582.81514873-1.4909091 1.37272728v7.45454545zm20.8545455-2.4c-.3272744.9090955-.845451 1.5666646-1.5545455 1.9727273-.7090944.4060626-1.7121147.6090909-3.0090909.6090909-1.4424314 0-2.5636323-.3484814-3.3636363-1.0454546-.800004-.6969731-1.2-1.7302961-1.2-3.1v-2.92727269c0-1.40606764.4212079-2.45757227 1.2636363-3.15454546.8424285-.69697318 1.9424175-1.04545454 3.3-1.04545454 1.3697039 0 2.4666626.35454191 3.2909091 1.06363636.8242466.70909446 1.2363637 1.79696237 1.2363637 3.26363637v1.67272726h-7.2727273v1.1454546c0 .9090954.2272704 1.5666646.6818182 1.9727272.4545477.4060627 1.1363591.6090909 2.0454545.6090909.8727317 0 1.5090889-.1212109 1.9090909-.3636363.400002-.2424255.7030293-.6363609.9090909-1.1818182zm-7.3090909-4.49090909v.43636364h5.4545454v-.27272728c0-.98182309-.2272704-1.69696745-.6818181-2.14545454-.4545478-.44848709-1.1363591-.67272728-2.0454546-.67272728-.9090954 0-1.5909068.21514937-2.0454545.64545455-.4545478.43030518-.6818182 1.09999545-.6818182 2.00909091z"/><path d="m707.363636 16.1818182c-1.357582 0-2.454541-.3363603-3.290909-1.0090909-.836368-.6727307-1.254545-1.7121142-1.254545-3.1181818v-2.94545459c0-1.41818891.421208-2.47272382 1.263636-3.16363636.842429-.69091255 1.942418-1.03636364 3.3-1.03636364 1.357583 0 2.451511.34545109 3.281818 1.03636364.830308.69091254 1.245455 1.74544745 1.245455 3.16363636v2.94545459c0 1.4060676-.418178 2.4454511-1.254546 3.1181818-.836367.6727306-1.933326 1.0090909-3.290909 1.0090909zm0-1.6363637c.909096 0 1.590907-.1939374 2.045455-.5818181.454548-.3878808.681818-1.024238.681818-1.9090909v-2.94545459c0-.87273164-.22727-1.51817973-.681818-1.93636364s-1.136359-.62727272-2.045455-.62727272c-.909095 0-1.590906.20908881-2.045454.62727272s-.681818 1.063632-.681818 1.93636364v2.94545459c0 .8848529.22727 1.5212101.681818 1.9090909.454548.3878807 1.136359.5818181 2.045454.5818181zm7.181819 1.4545455v-10.90909091h1.818181v1.81818182h.545455c.266668-.60606364.687876-1.09090727 1.263636-1.45454546.575761-.36363818 1.221209-.54545454 1.936364-.54545454 1.078793 0 1.93636.33636027 2.572727 1.00909091.636367.67273063.954546 1.57878218.954546 2.71818182v7.36363636h-1.818182v-7c0-.800004-.203028-1.39393745-.609091-1.78181818s-.918179-.58181818-1.536364-.58181818c-.703034 0-1.309088.17878609-1.818182.53636363-.509093.35757755-1.006058.81514873-1.490909 1.37272728v7.45454545zm16.563636.0909091c-1.224249 0-2.184845-.4121171-2.881818-1.2363636-.696973-.8242466-1.045455-1.7999944-1.045455-2.9272728v-10.47272725h1.818182v10.49090905c0 .6424275.178786 1.2121188.536364 1.709091.357577.4969721.899996.7454545 1.627272.7454545.181819 0 .393939-.0303027.636364-.0909091s.454545-.1333329.636364-.2181818l.363636 1.5818182c-.230304.1212127-.490908.2212117-.781818.3-.290911.0787882-.593938.1181818-.909091.1181818zm5.072727-.0909091v-10.90909091h1.818182v10.90909091zm.909091-12.90909091c-.460608 0-.833332-.07272654-1.118182-.21818182-.28485-.14545527-.427272-.41817982-.427272-.81818182v-.12727272c0-.41212328.142422-.69393864.427272-.84545455s.657574-.22727272 1.118182-.22727272.833332.07575681 1.118182.22727272.427273.43333127.427273.84545455v.12727272c0 .400002-.145453.67272655-.436364.81818182-.290911.14545528-.660604.21818182-1.109091.21818182zm5.363636 12.90909091v-10.90909091h1.818182v1.81818182h.545455c.266668-.60606364.687876-1.09090727 1.263636-1.45454546.575761-.36363818 1.221209-.54545454 1.936364-.54545454 1.078793 0 1.93636.33636027 2.572727 1.00909091.636367.67273063.954546 1.57878218.954546 2.71818182v7.36363636h-1.818182v-7c0-.800004-.203029-1.39393745-.609091-1.78181818-.406063-.38788073-.918179-.58181818-1.536364-.58181818-.703034 0-1.309088.17878609-1.818182.53636363-.509093.35757755-1.006058.81514873-1.490909 1.37272728v7.45454545zm20.854546-2.4c-.327274.9090955-.845451 1.5666646-1.554546 1.9727273-.709094.4060626-1.712114.6090909-3.00909.6090909-1.442432 0-2.563633-.3484814-3.363637-1.0454546-.800004-.6969731-1.2-1.7302961-1.2-3.1v-2.92727269c0-1.40606764.421208-2.45757227 1.263637-3.15454546.842428-.69697318 1.942417-1.04545454 3.3-1.04545454 1.369703 0 2.466662.35454191 3.290909 1.06363636.824246.70909446 1.236363 1.79696237 1.236363 3.26363637v1.67272726h-7.272727v1.1454546c0 .9090954.22727 1.5666646.681818 1.9727272.454548.4060627 1.136359.6090909 2.045455.6090909.872731 0 1.509089-.1212109 1.909091-.3636363.400002-.2424255.703029-.6363609.909091-1.1818182zm-7.309091-4.49090909v.43636364h5.454545v-.27272728c0-.98182309-.22727-1.69696745-.681818-2.14545454-.454547-.44848709-1.136359-.67272728-2.045454-.67272728-.909096 0-1.590907.21514937-2.045455.64545455s-.681818 1.09999545-.681818 2.00909091z"/></g><path d="m39 31h692v1h-692z" fill="#359e91"/></g></svg>

<?xml version="1.0" encoding="UTF-8" standalone="no"?>
<svg width="764px" height="37px" viewBox="0 0 764 37" version="1.1" xmlns="http://www.w3.org/2000/svg" xmlns:xlink="http://www.w3.org/1999/xlink" xmlns:sketch="http://www.bohemiancoding.com/sketch/ns">
    <!-- Generator: Sketch 3.5.1 (25234) - http://www.bohemiancoding.com/sketch -->
    <title>Group</title>
    <desc>Created with Sketch.</desc>
    <defs></defs>
    <g id="Page-1" stroke="none" stroke-width="1" fill="none" fill-rule="evenodd" sketch:type="MSPage">
        <g id="Artboard-1" sketch:type="MSArtboardGroup" transform="translate(-15.000000, -15.000000)">
            <g id="Group" sketch:type="MSLayerGroup" transform="translate(15.000000, 15.000000)">
                <circle id="Oval-1" fill="#FFFFFF" sketch:type="MSShapeGroup" cx="33.5" cy="31.5" r="5.5"></circle>
                <circle id="Oval-1-Copy-2" fill="#FFFFFF" sketch:type="MSShapeGroup" cx="736.5" cy="31.5" r="5.5"></circle>
                <path d="M5.36363636,16.1818182 C4.00605382,16.1818182 2.90909509,15.8454579 2.07272727,15.1727273 C1.23635945,14.4999966 0.818181818,13.4606131 0.818181818,12.0545455 L0.818181818,9.10909091 C0.818181818,7.690902 1.23938973,6.63636709 2.08181818,5.94545455 C2.92424664,5.254542 4.02423564,4.90909091 5.38181818,4.90909091 C6.73940073,4.90909091 7.83332918,5.254542 8.66363636,5.94545455 C9.49394355,6.63636709 9.90909091,7.690902 9.90909091,9.10909091 L9.90909091,12.0545455 C9.90909091,13.4606131 9.49091327,14.4999966 8.65454545,15.1727273 C7.81817764,15.8454579 6.72121891,16.1818182 5.36363636,16.1818182 L5.36363636,16.1818182 Z M5.36363636,14.5454545 C6.27273182,14.5454545 6.95454318,14.3515171 7.40909091,13.9636364 C7.86363864,13.5757556 8.09090909,12.9393984 8.09090909,12.0545455 L8.09090909,9.10909091 C8.09090909,8.23635927 7.86363864,7.59091118 7.40909091,7.17272727 C6.95454318,6.75454336 6.27273182,6.54545455 5.36363636,6.54545455 C4.45454091,6.54545455 3.77272955,6.75454336 3.31818182,7.17272727 C2.86363409,7.59091118 2.63636364,8.23635927 2.63636364,9.10909091 L2.63636364,12.0545455 C2.63636364,12.9393984 2.86363409,13.5757556 3.31818182,13.9636364 C3.77272955,14.3515171 4.45454091,14.5454545 5.36363636,14.5454545 L5.36363636,14.5454545 Z M14.3636364,16 L14.3636364,6.72727273 L12.1818182,6.72727273 L12.1818182,5.09090909 L14.3636364,5.09090909 L14.3636364,4.36363636 C14.3636364,3.38181327 14.6606031,2.62121482 15.2545455,2.08181818 C15.8484878,1.54242155 16.5878744,1.27272727 17.4727273,1.27272727 C17.8242442,1.27272727 18.2545429,1.32121164 18.7636364,1.41818182 C19.2727298,1.515152 19.6787864,1.62424182 19.9818182,1.74545455 L19.6181818,3.27272727 C19.3636351,3.17575709 19.0818197,3.09090945 18.7727273,3.01818182 C18.4636348,2.94545418 18.1515167,2.90909091 17.8363636,2.90909091 C17.3272702,2.90909091 16.9242439,3.021211 16.6272727,3.24545455 C16.3303015,3.46969809 16.1818182,3.83636109 16.1818182,4.34545455 L16.1818182,5.09090909 L19.8181818,5.09090909 L19.8181818,6.72727273 L16.1818182,6.72727273 L16.1818182,16 L14.3636364,16 Z M24.2727273,16 L24.2727273,6.72727273 L22.0909091,6.72727273 L22.0909091,5.09090909 L24.2727273,5.09090909 L24.2727273,4.36363636 C24.2727273,3.38181327 24.569694,2.62121482 25.1636364,2.08181818 C25.7575787,1.54242155 26.4969653,1.27272727 27.3818182,1.27272727 C27.7333351,1.27272727 28.1636338,1.32121164 28.6727273,1.41818182 C29.1818207,1.515152 29.5878773,1.62424182 29.8909091,1.74545455 L29.5272727,3.27272727 C29.272726,3.17575709 28.9909106,3.09090945 28.6818182,3.01818182 C28.3727257,2.94545418 28.0606076,2.90909091 27.7454545,2.90909091 C27.2363611,2.90909091 26.8333348,3.021211 26.5363636,3.24545455 C26.2393925,3.46969809 26.0909091,3.83636109 26.0909091,4.34545455 L26.0909091,5.09090909 L29.7272727,5.09090909 L29.7272727,6.72727273 L26.0909091,6.72727273 L26.0909091,16 L24.2727273,16 Z M37.2,16.0909091 C35.9757515,16.0909091 35.015155,15.678792 34.3181818,14.8545455 C33.6212086,14.0302989 33.2727273,13.0545511 33.2727273,11.9272727 L33.2727273,1.45454545 L35.0909091,1.45454545 L35.0909091,11.9454545 C35.0909091,12.587882 35.2696952,13.1575733 35.6272727,13.6545455 C35.9848503,14.1515176 36.5272691,14.4 37.2545455,14.4 C37.4363645,14.4 37.6484836,14.3696973 37.8909091,14.3090909 C38.1333345,14.2484845 38.3454536,14.175758 38.5272727,14.0909091 L38.8909091,15.6727273 C38.6606049,15.79394 38.4000015,15.893939 38.1090909,15.9727273 C37.8181804,16.0515155 37.5151531,16.0909091 37.2,16.0909091 L37.2,16.0909091 Z M42.2727273,16 L42.2727273,5.09090909 L44.0909091,5.09090909 L44.0909091,16 L42.2727273,16 Z M43.1818182,3.09090909 C42.7212098,3.09090909 42.3484863,3.01818255 42.0636364,2.87272727 C41.7787865,2.727272 41.6363636,2.45454745 41.6363636,2.05454545 L41.6363636,1.92727273 C41.6363636,1.51514945 41.7787865,1.23333409 42.0636364,1.08181818 C42.3484863,0.930302273 42.7212098,0.854545455 43.1818182,0.854545455 C43.6424265,0.854545455 44.0151501,0.930302273 44.3,1.08181818 C44.5848499,1.23333409 44.7272727,1.51514945 44.7272727,1.92727273 L44.7272727,2.05454545 C44.7272727,2.45454745 44.5818196,2.727272 44.2909091,2.87272727 C43.9999985,3.01818255 43.6303053,3.09090909 43.1818182,3.09090909 L43.1818182,3.09090909 Z M48.5454545,16 L48.5454545,5.09090909 L50.3636364,5.09090909 L50.3636364,6.90909091 L50.9090909,6.90909091 C51.1757589,6.30302727 51.5969668,5.81818364 52.1727273,5.45454545 C52.7484877,5.09090727 53.3939358,4.90909091 54.1090909,4.90909091 C55.1878842,4.90909091 56.0454514,5.24545118 56.6818182,5.91818182 C57.318185,6.59091245 57.6363636,7.496964 57.6363636,8.63636364 L57.6363636,16 L55.8181818,16 L55.8181818,9 C55.8181818,8.199996 55.6151535,7.60606255 55.2090909,7.21818182 C54.8030283,6.83030109 54.2909122,6.63636364 53.6727273,6.63636364 C52.9696935,6.63636364 52.3636389,6.81514973 51.8545455,7.17272727 C51.345452,7.53030482 50.8484873,7.987876 50.3636364,8.54545455 L50.3636364,16 L48.5454545,16 Z M69.4,13.6 C69.0727256,14.5090955 68.554549,15.1666646 67.8454545,15.5727273 C67.1363601,15.9787899 66.1333398,16.1818182 64.8363636,16.1818182 C63.3939322,16.1818182 62.2727313,15.8333368 61.4727273,15.1363636 C60.6727233,14.4393905 60.2727273,13.4060675 60.2727273,12.0363636 L60.2727273,9.10909091 C60.2727273,7.70302327 60.6939352,6.65151864 61.5363636,5.95454545 C62.3787921,5.25757227 63.4787811,4.90909091 64.8363636,4.90909091 C66.2060675,4.90909091 67.3030262,5.26363282 68.1272727,5.97272727 C68.9515193,6.68182173 69.3636364,7.76968964 69.3636364,9.23636364 L69.3636364,10.9090909 L62.0909091,10.9090909 L62.0909091,12.0545455 C62.0909091,12.9636409 62.3181795,13.6212101 62.7727273,14.0272727 C63.227275,14.4333354 63.9090864,14.6363636 64.8181818,14.6363636 C65.6909135,14.6363636 66.3272707,14.5151527 66.7272727,14.2727273 C67.1272747,14.0303018 67.430302,13.6363664 67.6363636,13.0909091 L69.4,13.6 Z M62.0909091,9.10909091 L62.0909091,9.54545455 L67.5454545,9.54545455 L67.5454545,9.27272727 C67.5454545,8.29090418 67.3181841,7.57575982 66.8636364,7.12727273 C66.4090886,6.67878564 65.7272773,6.45454545 64.8181818,6.45454545 C63.9090864,6.45454545 63.227275,6.66969482 62.7727273,7.1 C62.3181795,7.53030518 62.0909091,8.19999545 62.0909091,9.10909091 L62.0909091,9.10909091 Z" id="offline" fill="#FFFFFF" sketch:type="MSShapeGroup"></path>
                <path d="M707.363636,16.1818182 C706.006054,16.1818182 704.909095,15.8454579 704.072727,15.1727273 C703.236359,14.4999966 702.818182,13.4606131 702.818182,12.0545455 L702.818182,9.10909091 C702.818182,7.690902 703.23939,6.63636709 704.081818,5.94545455 C704.924247,5.254542 706.024236,4.90909091 707.381818,4.90909091 C708.739401,4.90909091 709.833329,5.254542 710.663636,5.94545455 C711.493944,6.63636709 711.909091,7.690902 711.909091,9.10909091 L711.909091,12.0545455 C711.909091,13.4606131 711.490913,14.4999966 710.654545,15.1727273 C709.818178,15.8454579 708.721219,16.1818182 707.363636,16.1818182 L707.363636,16.1818182 Z M707.363636,14.5454545 C708.272732,14.5454545 708.954543,14.3515171 709.409091,13.9636364 C709.863639,13.5757556 710.090909,12.9393984 710.090909,12.0545455 L710.090909,9.10909091 C710.090909,8.23635927 709.863639,7.59091118 709.409091,7.17272727 C708.954543,6.75454336 708.272732,6.54545455 707.363636,6.54545455 C706.454541,6.54545455 705.77273,6.75454336 705.318182,7.17272727 C704.863634,7.59091118 704.636364,8.23635927 704.636364,9.10909091 L704.636364,12.0545455 C704.636364,12.9393984 704.863634,13.5757556 705.318182,13.9636364 C705.77273,14.3515171 706.454541,14.5454545 707.363636,14.5454545 L707.363636,14.5454545 Z M714.545455,16 L714.545455,5.09090909 L716.363636,5.09090909 L716.363636,6.90909091 L716.909091,6.90909091 C717.175759,6.30302727 717.596967,5.81818364 718.172727,5.45454545 C718.748488,5.09090727 719.393936,4.90909091 720.109091,4.90909091 C721.187884,4.90909091 722.045451,5.24545118 722.681818,5.91818182 C723.318185,6.59091245 723.636364,7.496964 723.636364,8.63636364 L723.636364,16 L721.818182,16 L721.818182,9 C721.818182,8.199996 721.615154,7.60606255 721.209091,7.21818182 C720.803028,6.83030109 720.290912,6.63636364 719.672727,6.63636364 C718.969693,6.63636364 718.363639,6.81514973 717.854545,7.17272727 C717.345452,7.53030482 716.848487,7.987876 716.363636,8.54545455 L716.363636,16 L714.545455,16 Z M731.109091,16.0909091 C729.884842,16.0909091 728.924246,15.678792 728.227273,14.8545455 C727.5303,14.0302989 727.181818,13.0545511 727.181818,11.9272727 L727.181818,1.45454545 L729,1.45454545 L729,11.9454545 C729,12.587882 729.178786,13.1575733 729.536364,13.6545455 C729.893941,14.1515176 730.43636,14.4 731.163636,14.4 C731.345455,14.4 731.557575,14.3696973 731.8,14.3090909 C732.042425,14.2484845 732.254545,14.175758 732.436364,14.0909091 L732.8,15.6727273 C732.569696,15.79394 732.309092,15.893939 732.018182,15.9727273 C731.727271,16.0515155 731.424244,16.0909091 731.109091,16.0909091 L731.109091,16.0909091 Z M736.181818,16 L736.181818,5.09090909 L738,5.09090909 L738,16 L736.181818,16 Z M737.090909,3.09090909 C736.630301,3.09090909 736.257577,3.01818255 735.972727,2.87272727 C735.687877,2.727272 735.545455,2.45454745 735.545455,2.05454545 L735.545455,1.92727273 C735.545455,1.51514945 735.687877,1.23333409 735.972727,1.08181818 C736.257577,0.930302273 736.630301,0.854545455 737.090909,0.854545455 C737.551517,0.854545455 737.924241,0.930302273 738.209091,1.08181818 C738.493941,1.23333409 738.636364,1.51514945 738.636364,1.92727273 L738.636364,2.05454545 C738.636364,2.45454745 738.490911,2.727272 738.2,2.87272727 C737.909089,3.01818255 737.539396,3.09090909 737.090909,3.09090909 L737.090909,3.09090909 Z M742.454545,16 L742.454545,5.09090909 L744.272727,5.09090909 L744.272727,6.90909091 L744.818182,6.90909091 C745.08485,6.30302727 745.506058,5.81818364 746.081818,5.45454545 C746.657579,5.09090727 747.303027,4.90909091 748.018182,4.90909091 C749.096975,4.90909091 749.954542,5.24545118 750.590909,5.91818182 C751.227276,6.59091245 751.545455,7.496964 751.545455,8.63636364 L751.545455,16 L749.727273,16 L749.727273,9 C749.727273,8.199996 749.524244,7.60606255 749.118182,7.21818182 C748.712119,6.83030109 748.200003,6.63636364 747.581818,6.63636364 C746.878784,6.63636364 746.27273,6.81514973 745.763636,7.17272727 C745.254543,7.53030482 744.757578,7.987876 744.272727,8.54545455 L744.272727,16 L742.454545,16 Z M763.309091,13.6 C762.981817,14.5090955 762.46364,15.1666646 761.754545,15.5727273 C761.045451,15.9787899 760.042431,16.1818182 758.745455,16.1818182 C757.303023,16.1818182 756.181822,15.8333368 755.381818,15.1363636 C754.581814,14.4393905 754.181818,13.4060675 754.181818,12.0363636 L754.181818,9.10909091 C754.181818,7.70302327 754.603026,6.65151864 755.445455,5.95454545 C756.287883,5.25757227 757.387872,4.90909091 758.745455,4.90909091 C760.115158,4.90909091 761.212117,5.26363282 762.036364,5.97272727 C762.86061,6.68182173 763.272727,7.76968964 763.272727,9.23636364 L763.272727,10.9090909 L756,10.9090909 L756,12.0545455 C756,12.9636409 756.22727,13.6212101 756.681818,14.0272727 C757.136366,14.4333354 757.818177,14.6363636 758.727273,14.6363636 C759.600004,14.6363636 760.236362,14.5151527 760.636364,14.2727273 C761.036366,14.0303018 761.339393,13.6363664 761.545455,13.0909091 L763.309091,13.6 Z M756,9.10909091 L756,9.54545455 L761.454545,9.54545455 L761.454545,9.27272727 C761.454545,8.29090418 761.227275,7.57575982 760.772727,7.12727273 C760.31818,6.67878564 759.636368,6.45454545 758.727273,6.45454545 C757.818177,6.45454545 757.136366,6.66969482 756.681818,7.1 C756.22727,7.53030518 756,8.19999545 756,9.10909091 L756,9.10909091 Z" id="online" fill="#FFFFFF" sketch:type="MSShapeGroup"></path>
                <rect id="Rectangle-1" fill="#359E91" sketch:type="MSShapeGroup" x="39" y="31" width="692" height="1"></rect>
            </g>
        </g>
    </g>
</svg>
